X:165
T:Paddy's Trip to Scotland
M:4/4
L:1/8
R:Reel
K:DMaj
"D" dA~A2 BAGF|"G" GABd "A"cABc|"D"d2ed "A"cABc|"G" dfed "A" cABc|
"D" dA~A2 BAGF | "G" GABd "A"cABc | "D"d2ed "A"cABc | 1 "G"dfec "A"d2Ac:
|2 "D"dfec d2dB||
|:"D" Adfd Adfd | Adfd dcBA| "A"Acec Acec | Acec dcBA |
"D" Adfd Adfd | Adfd dcBg | "A" aA~A2 dcBA | 1 "G" (3Bcd "A"ec  "D"d2dB:
|2 "G"(3Bcd "A" ec "D"d2Ac||
